X: 1
T: Barney Brannigan
R: slip jig
M: 9/8
L: 1/8
K: Dmaj
F2A ABA ABA|F2A ABA Bcd|F2A ABA ABA|BGB .e2d cBA:|
|:.f2a f2a fed|.f2a f2a gfe|.f2a f2a fed|g2f e2d cBA:|
|:.f3 .a3 d2f|g2f e2d cBA|f2a e2f d2B|A2B A2G FED:|


Tune 1429	Setting 14806

